app/themes/uggwc_pro/assets/images/thema/VWA.svg

<svg width="16" height="16" viewBox="0 0 16 16" fill="none" xmlns="http://www.w3.org/2000/svg">
<g clip-path="url(#clip0_111_190)">
<path d="M4.55225 4.55225C5.59351 3.51098 5.59351 1.82221 4.55225 0.780948C3.51098 -0.260316 1.82221 -0.260316 0.780948 0.780948C-0.260316 1.82221 -0.260316 3.51098 0.780948 4.55225C1.82263 5.59393 3.51098 5.59393 4.55225 4.55225ZM15.2191 11.4478C14.1778 10.4065 12.489 10.4065 11.4478 11.4478C10.4065 12.489 10.4065 14.1778 11.4478 15.2191C12.489 16.2603 14.1778 16.2603 15.2191 15.2191C16.2607 14.1778 16.2607 12.4894 15.2191 11.4478ZM15.1382 1.80471L14.1957 0.862199C13.6749 0.341359 12.8307 0.341359 12.3103 0.862199L0.862199 12.3103C0.341359 12.8311 0.341359 13.6753 0.862199 14.1957L1.80471 15.1382C2.32555 15.6591 3.16973 15.6591 3.69015 15.1382L15.1382 3.69015C15.6591 3.16973 15.6591 2.32555 15.1382 1.80471Z" fill="#6E6CFF"/>
</g>
<defs>
<clipPath id="clip0_111_190">
<rect width="16" height="16" fill="white"/>
</clipPath>
</defs>
</svg>

<svg width="16" height="16" fill="none" xmlns="http://www.w3.org/2000/svg"><g clip-path="url(#a)"><path d="M4.552 4.552A2.667 2.667 0 1 0 .78.781a2.667 2.667 0 0 0 3.772 3.771zm10.667 6.896a2.667 2.667 0 1 0-3.771 3.772 2.667 2.667 0 0 0 3.771-3.772zm-.08-9.643-.943-.943a1.333 1.333 0 0 0-1.886 0L.862 12.31c-.52.521-.52 1.365 0 1.886l.943.942c.52.521 1.365.521 1.885 0L15.138 3.69c.521-.52.521-1.364 0-1.885z" fill="#6E6CFF"/></g><defs><clipPath id="a"><path fill="#fff" d="M0 0h16v16H0z"/></clipPath></defs></svg>
